icon-themes/breeze_svg/cmd/lc_dsbinsertcontent.svg

<svg viewBox="0 0 24 24" xmlns="http://www.w3.org/2000/svg"><path d="m12 4c-4.418278 0-8 .8954-8 2v4 8c0 .283492.3448304.732147.9960938.992188 1.6460284.657235 4.9092318 1.002629 7.0039062 1.007812v-1c-2.276477-.03007-5.1033154-.101872-7-1v-3.0625c1.3529566.6249 3.9580758 1.0625 7 1.0625 3.041924 0 5.647043-.4376 7-1.0625v4c.329837-.161062 1-.54184 1-.9375v-12c0-1.1046-3.581722-2-8-2zm0 1c3.865993 0 7 .4477 7 1s-3.134007 1-7 1c-3.8659932 0-7-.4477-7-1s3.1340068-1 7-1zm-7 1.9375c1.3529566.6249 3.9580758 1.0625 7 1.0625 3.041924 0 5.647043-.4376 7-1.0625v3.0625c0 .5523-3.134007 1-7 1-3.8659932 0-7-.4477-7-1v-.9375zm0 4c1.3529566.6249 3.9580758 1.0625 7 1.0625 3.041924 0 5.647043-.4376 7-1.0625v3.0625c0 .5523-3.134007 1-7 1-3.8659932 0-7-.4477-7-1z" fill="#4d4d4d"/><path d="m13 18v3h5v-3z" fill="#1d99f3"/></svg>

<svg viewBox="0 0 24 24" xmlns="http://www.w3.org/2000/svg">
  <path
     style="fill:#4d4d4d"
     d="M 12,4 C 7.581722,4 4,4.8954 4,6 v 4 8 c 0,0.283492 0.3448304,0.732147 0.9960938,0.992188 C 6.6421222,19.649423 9.9053256,19.994817 12,20 V 19 C 9.723523,18.96993 6.8966846,18.898128 5,18 V 14.9375 C 6.3529566,15.5624 8.9580758,16 12,16 c 3.041924,0 5.647043,-0.4376 7,-1.0625 v 4 C 19.329837,18.776438 20,18.39566 20,18 V 6 C 20,4.8954 16.418278,4 12,4 Z m 0,1 c 3.865993,0 7,0.4477 7,1 0,0.5523 -3.134007,1 -7,1 C 8.1340068,7 5,6.5523 5,6 5,5.4477 8.1340068,5 12,5 Z M 5,6.9375 C 6.3529566,7.5624 8.9580758,8 12,8 15.041924,8 17.647043,7.5624 19,6.9375 V 10 c 0,0.5523 -3.134007,1 -7,1 C 8.1340068,11 5,10.5523 5,10 V 9.0625 Z m 0,4 C 6.3529566,11.5624 8.9580758,12 12,12 c 3.041924,0 5.647043,-0.4376 7,-1.0625 V 14 c 0,0.5523 -3.134007,1 -7,1 -3.8659932,0 -7,-0.4477 -7,-1 z"
     />
  <path
     style="fill:#1d99f3"
     d="m 13,18 v 3 h 5 v -3 z"
     />
</svg>
